!!!OTL: N6a. Haydn, "Il Terremoto", op. 51 no. 7, mm. 93-end
!!!OMD: Presto e con tutta la forza
**kern	**kern	**kern	**kern
*staff4	*staff3	*staff2	*staff1
*Icello	*Iviola	*Ivioln	*Ivioln
*clefF4	*clefC3	*clefG2	*clefG2
*k[b-e-a-]	*k[b-e-a-]	*k[b-e-a-]	*k[b-e-a-]
*c:	*c:	*c:	*c:
*M3/4	*M3/4	*M3/4	*M3/4
*MM180	*MM180	*MM180	*MM180
=93-	=93-	=93-	=93-
(32GGQ/LLL	(32GQ/LLL	(32GQ/LLL	(32GQ/LLL
32AAnQ/	32AnQ/	32AnQ/	32AnQ/
32BBnQ/JJJ	32BnQ/JJJ	32BnQ/JJJ	32BnQ/JJJ
2.C/)	2.c/)	2.c/)	2.c/)
=94	=94	=94	=94
(32GGQ/LLL	(32GQ/LLL	(32GQ/LLL	(32GQ/LLL
32AAnQ/	32AnQ/	32AnQ/	32AnQ/
32BBnQ/JJJ	32BnQ/JJJ	32BnQ/JJJ	32BnQ/JJJ
2.C/)	2.c/)	2.c/)	2.c/)
=95	=95	=95	=95
(32GGQ/LLL	(32GQ/LLL	(32GQ/LLL	(32GQ/LLL
32AAnQ/	32AnQ/	32AnQ/	32AnQ/
32BBnQ/JJJ	32BnQ/JJJ	32BnQ/JJJ	32BnQ/JJJ
4C/)	4c/)	4c/)	4c/)
4BBn'/	4Bn'/	4Bn'/	4Bn'/
4C'/	4c'/	4c'/	4c'/
=96	=96	=96	=96
4D-'\	4d-'\	4d-'/	4d-'/
4C'/	4c'\	4c'/	4c'/
4BBn'/	4Bn'/	4Bn'/	4Bn'/
=97	=97	=97	=97
4C'/	4c'\	8c/L	8c/L
.	.	8c/	8c/
4BBn'/	4Bn'/	8Bn/	8Bn/
.	.	8B/	8B/
4C'/	4c'\	8c/	8c/
.	.	8c/J	8c/J
=98	=98	=98	=98
4D-'\	4d-'\	8d-/L	8d-/L
.	.	8d-/	8d-/
4C'/	4c'\	8c/	8c/
.	.	8c/	8c/
4Dn'\	4dn'\	8dn/	8dn/
.	.	8d/J	8d/J
=99	=99	=99	=99
4E-'\	4e-'\	8e-/L	8e-/L
.	.	8e-/	8e-/
4D'\	4d'\	8d/	8d/
.	.	8d/	8d/
4En'\	4en'\	8en/	8en/
.	.	8e/J	8e/J
=100	=100	=100	=100
4F'\	4f'\	8f/L	8f/L
.	.	8f/	8f/
4En'\	4en'\	8en/	8en/
.	.	8e/	8e/
4F#'\	4f#'\	8f#/	8f#/
.	.	8f#/J	8f#/J
=101	=101	=101	=101
4G\	4g\	4g/	4g/
4r	4r	4r	4r
4GG/	4G/	4d/ 4bn/	4d/ 4bn/
=102	=102	=102	=102
4C/	4c\	4cc\	2.cc\
4E-\	4e-\	4ee-\	.
4C/	4c\	4cc\	.
=103	=103	=103	=103
4BBn/	4Bn/	4bn\	2.gg\
2F\	2f\	2ff\	.
=104	=104	=104	=104
4En\	4en\	4een\	12ccc\L
.	.	.	12ccc\
.	.	.	12ccc\J
4G\	4g\	4gg\	12ccc\L
.	.	.	12ccc\
.	.	.	12ccc\J
4B-\	4b-\	4bb-\	12ccc\L
.	.	.	12ccc\
.	.	.	12ccc\J
=105	=105	=105	=105
4A-\	4a-\	4aa-\	12ccc\L
.	.	.	12ccc\
.	.	.	12ccc\J
4F\	4f\	4ff\	12ccc\L
.	.	.	12ccc\
.	.	.	12ccc\J
4Bn\	4f\	4aa-\	12ddd\L
.	.	.	12ddd\
.	.	.	12ddd\J
=106	=106	=106	=106
4c\	4e-\	12gg\L	12eee-\L
.	.	12gg\	12eee-\
.	.	12gg\J	12eee-\J
4c\	4e-\	12gg\L	12eee-\L
.	.	12gg\	12eee-\
.	.	12gg\J	12eee-\J
4c\	4e-\	12gg\L	12eee-\L
.	.	12gg\	12eee-\
.	.	12gg\J	12eee-\J
=107	=107	=107	=107
4B-\	4dd-\	12gg\L	12eeen\L
.	.	12gg\	12eee\
.	.	12gg\J	12eee\J
4B-\	4dd-\	12gg\L	12eee\L
.	.	12gg\	12eee\
.	.	12gg\J	12eee\J
4B-\	4dd-\	12gg\L	12eee\L
.	.	12gg\	12eee\
.	.	12gg\J	12eee\J
=108	=108	=108	=108
4A-\	4cc\	4ff\	4fff\
4r	4r	4r	4r
4r	4r	4r	4r
=109	=109	=109	=109
12FF/L	12d-\L	12A-/L	12d-/L
12FF/	12d-\	12A-/	12d-/
12FF/J	12d-\J	12A-/J	12d-/J
12FF/L	12d-\L	12A-/L	12d-/L
12FF/	12d-\	12A-/	12d-/
12FF/J	12d-\J	12A-/J	12d-/J
12FF/L	12d-\L	12A-/L	12d-/L
12FF/	12d-\	12A-/	12d-/
12FF/J	12d-\J	12A-/J	12d-/J
=110	=110	=110	=110
12FF/L	12d-\L	12A-/L	12a-/L
12FF/	12d-\	12A-/	12a-/
12FF/J	12d-\J	12A-/J	12a-/J
12FF/L	12d-\L	12A-/L	12f/L
12FF/	12d-\	12A-/	12f/
12FF/J	12d-\J	12A-/J	12f/J
12FF/L	12d-\L	12A-/L	12d-/L
12FF/	12d-\	12A-/	12d-/
12FF/J	12d-\J	12A-/J	12d-/J
=111	=111	=111	=111
12FF#/L	12e-\L	12An/L	12c/L
12FF#/	12e-\	12A/	12c/
12FF#/J	12e-\J	12A/J	12c/J
12FF#/L	12e-\L	12A/L	12c/L
12FF#/	12e-\	12A/	12c/
12FF#/J	12e-\J	12A/J	12c/J
12FF#/L	12e-\L	12A/L	12c/L
12FF#/	12e-\	12A/	12c/
12FF#/J	12e-\J	12A/J	12c/J
=112	=112	=112	=112
12FF#/L	12e-\L	12An/L	12ee-\L
12FF#/	12e-\	12A/	12ee-\
12FF#/J	12e-\J	12A/J	12ee-\J
12FF#/L	12e-\L	12A/L	12cc\L
12FF#/	12e-\	12A/	12cc\
12FF#/J	12e-\J	12A/J	12cc\J
12FF#/L	12e-\L	12A/L	12f#/L
12FF#/	12e-\	12A/	12f#/
12FF#/J	12e-\J	12A/J	12f#/J
=113	=113	=113	=113
4GG/	4G/	4G/	4g/
4r	4r	4r	4r
4r	4r	4r	4r
=114	=114	=114	=114
4GG/	4G/	4G/ 4d/ 4bn/	4G/ 4d/ 4bn/
4r	4r	4r	4r
4r	4r	4r	4r
=115	=115	=115	=115
12C/L	12c\L	12c/L	12c/L
12C/	12c\	12c/	12c/
12C/J	12c\J	12c/J	12c/J
12BBn/L	12Bn/L	12Bn/L	12Bn/L
12BB/	12B/	12B/	12B/
12BB/J	12B/J	12B/J	12B/J
12C/L	12c\L	12c/L	12c/L
12C/	12c\	12c/	12c/
12C/J	12c\J	12c/J	12c/J
=116	=116	=116	=116
12D-\L	12d-\L	12d-/L	12d-/L
12D-\	12d-\	12d-/	12d-/
12D-\J	12d-\J	12d-/J	12d-/J
12C/L	12c\L	12c/L	12c/L
12C/	12c\	12c/	12c/
12C/J	12c\J	12c/J	12c/J
12BBn/L	12Bn/L	12Bn/L	12Bn/L
12BB/	12B/	12B/	12B/
12BB/J	12B/J	12B/J	12B/J
=117	=117	=117	=117
12C/L	12c\L	12c/L	12c/L
12C/	12c\	12c/	12c/
12C/J	12c\J	12c/J	12c/J
12BBn/L	12Bn/L	12Bn/L	12Bn/L
12BB/	12B/	12B/	12B/
12BB/J	12B/J	12B/J	12B/J
12C/L	12c\L	12c/L	12c/L
12C/	12c\	12c/	12c/
12C/J	12c\J	12c/J	12c/J
=118	=118	=118	=118
12D-\L	12d-\L	12d-/L	12d-/L
12D-\	12d-\	12d-/	12d-/
12D-\J	12d-\J	12d-/J	12d-/J
12C/L	12c\L	12c/L	12c/L
12C/	12c\	12c/	12c/
12C/J	12c\J	12c/J	12c/J
12BBn/L	12Bn/L	12Bn/L	12Bn/L
12BB/	12B/	12B/	12B/
12BB/J	12B/J	12B/J	12B/J
=119	=119	=119	=119
4C/	4c\	4c/	4c/
4r	4r	4r	4r
4r	4r	4r	4r
=120	=120	=120	=120
(32GGQ/LLL	(32GQ/LLL	(32GQ/LLL	(32GQ/LLL
32AAnQ/	32AnQ/	32AnQ/	32AnQ/
32BBnQ/JJJ	32BnQ/JJJ	32BnQ/JJJ	32BnQ/JJJ
2.C/)	2.c\)	2.c/)	2.c/)
=121	=121	=121	=121
(32GGQ/LLL	(32GQ/LLL	(32GQ/LLL	(32GQ/LLL
32AAnQ/	32AnQ/	32AnQ/	32AnQ/
32BBnQ/JJJ	32BnQ/JJJ	32BnQ/JJJ	32BnQ/JJJ
2.C/)	2.c\)	2.c/)	2.c/)
=122	=122	=122	=122
(32GGQ/LLL	(32GQ/LLL	(32GQ/LLL	(32GQ/LLL
32AAnQ/	32AnQ/	32AnQ/	32AnQ/
32BBnQ/JJJ	32BnQ/JJJ	32BnQ/JJJ	32BnQ/JJJ
4C/)	4c\)	4c/)	4c/)
4C/	4c\	4c/	4c/
4C/	4c\	4c/	4c/
=123	=123	=123	=123
4C/	4c\	4c/	4c/
4r	4r	4r	4r
4r	4r	4r	4r
==	==	==	==
*-	*-	*-	*-
!!!hum2abc: -q --spacing 2.0 -s 0.61 -p "%%tuplets 1 0 1"
